store-remove.svg

<svg fill="currentColor" viewBox="0 0 24 24"><path d="M4 4h16v2H4zm11.46 12.88 1.42-1.42L19 17.59l2.12-2.12 1.42 1.41L20.41 19l2.13 2.12-1.42 1.42L19 20.41l-2.12 2.13-1.42-1.42L17.59 19l-2.12-2.12M4 7h16l1 5v1.34a6 6 0 0 0-2.09-.38c-1.2 0-2.37.37-3.37 1.04H14v1.53c-.7 1-1.08 2.2-1.08 3.42L13 20H4v-6H3v-2zm2 7v4h6v-4z"/></svg>

<svg  viewBox="0 0 24 24" fill="currentColor"><path  d="M4 4H20V6H4V4M15.46 16.88L16.88 15.46L19 17.59L21.12 15.47L22.54 16.88L20.41 19L22.54 21.12L21.12 22.54L19 20.41L16.88 22.54L15.46 21.12L17.59 19L15.47 16.88M4 7H20L21 12V13.34C20.33 13.09 19.62 12.96 18.91 12.96C17.71 12.96 16.54 13.33 15.54 14H14V15.53C13.3 16.53 12.92 17.73 12.92 18.95L13 20H4V14H3V12L4 7M6 14V18H12V14H6Z"/></svg>
